X: 3
T: Wee Michael's March
Z: CreadurMawnOrganig
S: https://thesession.org/tunes/4301#setting24909
R: mazurka
M: 3/4
L: 1/8
K: Dmaj
A, ED/E/ | F3 A GF | E<G, D2 A,<G,| A,3 F G<F |1 E3 A, ED/E/|
F3 A GF | G<G, D2 A,<G,| A,3 F EF/E/ | D3 :|2 E3 E FG |
A2 F2 GF | G<G, D2 A,<G,| A,3 F EF/E/ | D3 ||
|: A, DE/F/ | G3 F G<A | [M: 2/4] F2 ED | [M: 3/4] DB,2A, G<F |1 E3 A, DE/F/|
G3 F G<A | [M:2/4] F2 ED | [M:3/4] DA,2F E>D | D3 :||2 E3 E FG |
A2 F2 GF | G<G, D2 A,<G,| A,3 F EF/E/ | D3 ||
